!!!SOCIAL_FUNCTION:	songs of the turkey dance
!!!PDT:	1922
!!!OTL: No_31_Turkey_Dance_Song_(b).krn
!!!REG: Southwest
!!!LANG: Non-Tone
!!!LING_GROUP: Uto-Aztecan
**kern	**kern
*staff2	*staff1
=1-	=1-
*clefF4	*clefG2
*k[f#c#g#]	*k[f#c#g#]
*M2/4	*M2/4
8GG#/L	4a/
8GG#/J	.
8GG#/L	8a/L
8GG#/J	8f#/J
=2||	=2||
*M3/4	*M3/4
8GG#/L	4a/
8GG#/J	.
8GG#/L	8a/L
8GG#/J	8a/J
4r	8f#/L
.	8f#/J
=3	=3
2.r	2.f#/
=4||	=4||
*M2/4	*M2/4
2r	8f#/L
.	8f#/J
.	8f#/L
.	8f#/J
=5	=5
2r	8a/L
.	8a/J
.	8e/L
.	8e/J
=6	=6
2r	8f#/L
.	8f#/J
.	8c#/L
.	8c#/J
=7	=7
2r	2B/
*	*clefF4
=8	=8
2r	8c#\L
.	8B\J
.	8A\L
.	8A\J
=9	=9
2r	8B\L
.	8B\J
.	8A\L
.	8A\J
=10	=10
2r	2F#\
=11	=11
2r	8B\L
.	8B\J
.	8A\L
.	8F#\J
=12||	=12||
*M3/4	*M3/4
2.r	8A\L
.	8A\J
.	8A\L
.	8A\J
.	8F#\L
.	8F#\J
=13	=13
2.r	2.F#\
==	==
*-	*-
